austria/municipalities/41403.svg

<?xml version="1.0" encoding="UTF-8"?>
<!DOCTYPE svg PUBLIC "-//W3C//DTD SVG 1.1//EN" "http://www.w3.org/Graphics/SVG/1.1/DTD/svg11.dtd">
<svg xmlns="http://www.w3.org/2000/svg" version="1.1" width="166px" height="207px" style="shape-rendering:geometricPrecision; text-rendering:geometricPrecision; image-rendering:optimizeQuality; fill-rule:evenodd; clip-rule:evenodd" xmlns:xlink="http://www.w3.org/1999/xlink">
<g><path style="opacity:1" fill="#000000" d="M -0.5,-0.5 C 54.8333,-0.5 110.167,-0.5 165.5,-0.5C 165.5,44.1667 165.5,88.8333 165.5,133.5C 160.657,161.881 145.657,183.381 120.5,198C 112.336,201.554 104.002,204.388 95.5,206.5C 86.8333,206.5 78.1667,206.5 69.5,206.5C 29.593,196.928 6.25968,171.928 -0.5,131.5C -0.5,87.5 -0.5,43.5 -0.5,-0.5 Z"/></g>
<g><path style="opacity:1" fill="#fefffe" d="M 3.5,2.5 C 56.1667,2.5 108.833,2.5 161.5,2.5C 161.5,42.5 161.5,82.5 161.5,122.5C 141.831,122.333 122.164,122.5 102.5,123C 108.403,136.848 105.07,147.848 92.5,156C 73.7377,160.801 62.7377,153.801 59.5,135C 59.3759,130.872 60.3759,127.039 62.5,123.5C 42.8446,122.5 23.178,122.167 3.5,122.5C 3.5,82.5 3.5,42.5 3.5,2.5 Z"/></g>
<g><path style="opacity:1" fill="#000000" d="M 77.5,17.5 C 102.998,16.8528 119.832,28.5195 128,52.5C 132.263,83.2201 119.429,102.387 89.5,110C 62.22,111.785 44.72,99.6181 37,73.5C 34.2527,42.7859 47.7527,24.1192 77.5,17.5 Z"/></g>
<g><path style="opacity:1" fill="#fe9900" d="M 77.5,19.5 C 102.146,19.0097 118.313,30.343 126,53.5C 129.15,85.8918 114.65,104.225 82.5,108.5C 59.8321,106.923 45.3321,95.2567 39,73.5C 36.2118,44.1505 49.0451,26.1505 77.5,19.5 Z"/></g>
<g><path style="opacity:1" fill="#000000" d="M 78.5,25.5 C 103.629,25.9653 117.629,38.632 120.5,63.5C 118.704,86.964 106.037,99.964 82.5,102.5C 55.2324,98.6365 42.7324,82.9699 45,55.5C 50.1438,38.511 61.3105,28.511 78.5,25.5 Z"/></g>
<g><path style="opacity:1" fill="#fefffe" d="M 50.5,78.5 C 54.1667,78.5 57.8333,78.5 61.5,78.5C 62.9159,88.2914 68.4159,91.958 78,89.5C 79.1392,92.5833 80.4725,95.5833 82,98.5C 84.2848,96.0934 86.4514,93.5934 88.5,91C 94.6811,90.3308 99.5144,87.4975 103,82.5C 103.494,80.8659 103.66,79.1992 103.5,77.5C 106.518,77.6646 109.518,77.498 112.5,77C 110.959,74.0844 109.293,71.2511 107.5,68.5C 108.145,67.354 108.978,66.354 110,65.5C 112.928,56.3458 110.095,50.0125 101.5,46.5C 102.407,43.9433 103.407,41.4433 104.5,39C 101.275,39.3474 98.108,40.1808 95,41.5C 92.7139,35.2268 88.2139,32.5601 81.5,33.5C 75.6239,33.0676 70.7906,35.0676 67,39.5C 64.7787,38.5941 62.6121,37.5941 60.5,36.5C 60.9371,34.9256 61.9371,33.7589 63.5,33C 82.0681,24.3464 98.2348,27.5131 112,42.5C 123.548,63.1466 120.048,80.6466 101.5,95C 83.5429,103.375 67.7095,100.542 54,86.5C 52.5186,83.89 51.3519,81.2234 50.5,78.5 Z"/></g>
<g><path style="opacity:1" fill="#000000" d="M 50.5,78.5 C 52.1558,75.8614 53.8224,73.1947 55.5,70.5C 53.3918,68.6179 52.0585,66.2846 51.5,63.5C 51.9783,59.6019 53.145,55.9352 55,52.5C 57.5518,50.2852 59.7185,47.7852 61.5,45C 60.7844,42.2077 60.4511,39.3743 60.5,36.5C 62.6121,37.5941 64.7787,38.5941 67,39.5C 70.7906,35.0676 75.6239,33.0676 81.5,33.5C 88.2139,32.5601 92.7139,35.2268 95,41.5C 98.108,40.1808 101.275,39.3474 104.5,39C 103.407,41.4433 102.407,43.9433 101.5,46.5C 110.095,50.0125 112.928,56.3458 110,65.5C 108.978,66.354 108.145,67.354 107.5,68.5C 109.293,71.2511 110.959,74.0844 112.5,77C 109.518,77.498 106.518,77.6646 103.5,77.5C 103.66,79.1992 103.494,80.8659 103,82.5C 99.5144,87.4975 94.6811,90.3308 88.5,91C 86.4514,93.5934 84.2848,96.0934 82,98.5C 80.4725,95.5833 79.1392,92.5833 78,89.5C 68.4159,91.958 62.9159,88.2914 61.5,78.5C 57.8333,78.5 54.1667,78.5 50.5,78.5 Z"/></g>
<g><path style="opacity:1" fill="#c60300" d="M 76.5,35.5 C 79.8499,35.335 83.1832,35.5017 86.5,36C 91.9394,38.0468 93.7727,41.8801 92,47.5C 91,49.1667 90,50.8333 89,52.5C 86.9189,53.3331 84.7522,53.3331 82.5,52.5C 81.9845,44.526 81.1512,44.526 80,52.5C 78.8061,53.4303 77.4728,54.0969 76,54.5C 72.3955,51.4762 69.8955,47.6428 68.5,43C 69.7671,38.8964 72.4337,36.3964 76.5,35.5 Z"/></g>
<g><path style="opacity:1" fill="#fefffe" d="M 60.5,36.5 C 60.4511,39.3743 60.7844,42.2077 61.5,45C 59.7185,47.7852 57.5518,50.2852 55,52.5C 53.145,55.9352 51.9783,59.6019 51.5,63.5C 52.0585,66.2846 53.3918,68.6179 55.5,70.5C 53.8224,73.1947 52.1558,75.8614 50.5,78.5C 49.8826,78.3893 49.3826,78.056 49,77.5C 44.4415,64.0755 46.4415,51.7422 55,40.5C 56.451,38.5359 58.2843,37.2026 60.5,36.5 Z"/></g>
<g><path style="opacity:1" fill="#fe9900" d="M 62.5,39.5 C 65.7223,40.6026 67.389,42.9359 67.5,46.5C 66.3112,47.4287 64.9778,47.762 63.5,47.5C 63.1667,44.8333 62.8333,42.1667 62.5,39.5 Z"/></g>
<g><path style="opacity:1" fill="#000000" d="M 72.5,39.5 C 74.9752,39.7467 74.9752,40.4134 72.5,41.5C 71.537,41.0302 71.537,40.3635 72.5,39.5 Z"/></g>
<g><path style="opacity:1" fill="#000000" d="M 79.5,40.5 C 79.56,39.9569 79.8933,39.6236 80.5,39.5C 82.1151,40.154 83.7818,40.654 85.5,41C 83.4024,41.6776 81.4024,41.5109 79.5,40.5 Z"/></g>
<g><path style="opacity:1" fill="#fe9900" d="M 97.5,42.5 C 100.684,42.3322 101.184,43.6655 99,46.5C 95.0429,49.8186 93.5429,48.8186 94.5,43.5C 95.791,43.7373 96.791,43.404 97.5,42.5 Z"/></g>
<g><path style="opacity:1" fill="#ca0100" d="M 60.5,49.5 C 66.4486,48.9723 70.7819,51.3057 73.5,56.5C 73.1667,57.1667 72.8333,57.8333 72.5,58.5C 69.2832,58.6582 65.9499,58.8249 62.5,59C 65.5131,59.5022 68.5131,60.0022 71.5,60.5C 72.2747,64.1816 70.9414,66.6816 67.5,68C 53.5689,69.9933 50.2355,64.8267 57.5,52.5C 58.7701,51.7124 59.7701,50.7124 60.5,49.5 Z"/></g>
<g><path style="opacity:1" fill="#cb0000" d="M 95.5,49.5 C 98.5184,49.3354 101.518,49.502 104.5,50C 108.305,54.0911 109.472,58.9245 108,64.5C 104.548,68.0461 100.382,69.2128 95.5,68C 93.75,66.2458 93.0833,64.0792 93.5,61.5C 95.3084,61.5086 96.9751,61.0086 98.5,60C 94.258,60.0965 91.258,58.2632 89.5,54.5C 91.5707,52.8149 93.5707,51.1482 95.5,49.5 Z"/></g>
<g><path style="opacity:1" fill="#000000" d="M 103.5,56.5 C 103.34,54.8008 103.506,53.1341 104,51.5C 105.77,53.315 105.603,54.9817 103.5,56.5 Z"/></g>
<g><path style="opacity:1" fill="#000000" d="M 59.5,52.5 C 59.5208,54.034 59.8541,55.7007 60.5,57.5C 59.3515,59.7971 58.1848,62.1304 57,64.5C 57.7189,60.534 58.5522,56.534 59.5,52.5 Z"/></g>
<g><path style="opacity:1" fill="#fe9900" d="M 80.5,54.5 C 90.4372,55.2634 93.6039,60.2634 90,69.5C 85,74.8333 80,74.8333 75,69.5C 71.8163,62.5506 73.6496,57.5506 80.5,54.5 Z"/></g>
<g><path style="opacity:1" fill="#000000" d="M 103.5,56.5 C 104.481,58.4893 105.481,60.4893 106.5,62.5C 106.547,64.0004 105.881,65.0004 104.5,65.5C 104.914,62.9967 104.248,60.4967 102.5,58C 102.57,57.2352 102.903,56.7352 103.5,56.5 Z"/></g>
<g><path style="opacity:1" fill="#cb0000" d="M 70.5,68.5 C 75.299,70.6496 75.6323,73.4829 71.5,77C 72,77.5 72.5,78 73,78.5C 74.6135,73.7852 77.2801,72.7852 81,75.5C 81.8722,86.9762 77.0388,90.4762 66.5,86C 61.407,78.4459 62.7404,72.6126 70.5,68.5 Z"/></g>
<g><path style="opacity:1" fill="#cb0000" d="M 92.5,69.5 C 100.01,70.8344 102.844,75.1677 101,82.5C 97.9133,85.5437 94.2467,87.5437 90,88.5C 83.6579,86.3446 81.8246,82.0113 84.5,75.5C 85.1667,75.1667 85.8333,74.8333 86.5,74.5C 88.4586,75.7481 89.9586,77.4148 91,79.5C 91.0481,77.4559 90.5481,75.4559 89.5,73.5C 90.5244,72.1482 91.5244,70.8149 92.5,69.5 Z"/></g>
<g><path style="opacity:1" fill="#fe9900" d="M 103.5,69.5 C 105.809,70.3877 107.476,72.0544 108.5,74.5C 106.833,75.8333 105.167,75.8333 103.5,74.5C 102.687,73.1861 101.687,72.0195 100.5,71C 101.737,70.7679 102.737,70.2679 103.5,69.5 Z"/></g>
<g><path style="opacity:1" fill="#fe9900" d="M 57.5,71.5 C 62.4513,70.6012 63.4513,71.9346 60.5,75.5C 53.957,77.6231 52.957,76.2897 57.5,71.5 Z"/></g>
<g><path style="opacity:1" fill="#000000" d="M 69.5,82.5 C 65.4718,82.3129 63.9718,80.3129 65,76.5C 65.763,79.1926 67.263,81.1926 69.5,82.5 Z"/></g>
<g><path style="opacity:1" fill="#000000" d="M 93.5,82.5 C 95.6397,81.0317 97.8064,79.365 100,77.5C 99.5439,81.1023 97.3773,82.769 93.5,82.5 Z"/></g>
<g><path style="opacity:1" fill="#000000" d="M 69.5,82.5 C 71.1133,84.2696 73.1133,85.4363 75.5,86C 72.1284,87.1215 70.1284,85.9549 69.5,82.5 Z"/></g>
<g><path style="opacity:1" fill="#000000" d="M 93.5,82.5 C 92.8814,86.1428 90.8814,87.1428 87.5,85.5C 89.704,84.7937 91.704,83.7937 93.5,82.5 Z"/></g>
<g><path style="opacity:1" fill="#fe9900" d="M 81.5,85.5 C 86.0424,88.2446 86.5424,91.5779 83,95.5C 80.8699,92.3206 80.3699,88.9873 81.5,85.5 Z"/></g>
<g><path style="opacity:1" fill="#003266" d="M 3.5,124.5 C 22.1696,124.333 40.8363,124.5 59.5,125C 54.3941,145.067 62.0607,156.901 82.5,160.5C 103.144,157.04 110.811,145.207 105.5,125C 124.164,124.5 142.83,124.333 161.5,124.5C 159.599,161.576 141.266,186.743 106.5,200C 63.145,209.789 30.9783,195.289 10,156.5C 5.84382,146.219 3.67715,135.552 3.5,124.5 Z"/></g>
<g><path style="opacity:1" fill="#fefffe" d="M -0.5,131.5 C 6.25968,171.928 29.593,196.928 69.5,206.5C 46.1667,206.5 22.8333,206.5 -0.5,206.5C -0.5,181.5 -0.5,156.5 -0.5,131.5 Z"/></g>
<g><path style="opacity:1" fill="#fefffe" d="M 165.5,133.5 C 165.5,157.833 165.5,182.167 165.5,206.5C 142.167,206.5 118.833,206.5 95.5,206.5C 104.002,204.388 112.336,201.554 120.5,198C 145.657,183.381 160.657,161.881 165.5,133.5 Z"/></g>
</svg>

<svg xmlns="http://www.w3.org/2000/svg" width="166" height="207" style="shape-rendering:geometricPrecision;text-rendering:geometricPrecision;image-rendering:optimizeQuality;fill-rule:evenodd;clip-rule:evenodd"><path style="opacity:1" d="M-.5-.5h166v134c-4.843 28.381-19.843 49.881-45 64.5a157.946 157.946 0 0 1-25 8.5h-26c-39.907-9.572-63.24-34.572-70-75V-.5z"/><path style="opacity:1" fill="#fefffe" d="M3.5 2.5h158v120c-19.669-.167-39.336 0-59 .5 5.903 13.848 2.57 24.848-10 33-18.762 4.801-29.762-2.199-33-21-.124-4.128.876-7.961 3-11.5a870.843 870.843 0 0 0-59-1V2.5z"/><path style="opacity:1" d="M77.5 17.5c25.498-.647 42.332 11.02 50.5 35 4.263 30.72-8.571 49.887-38.5 57.5-27.28 1.785-44.78-10.382-52.5-36.5-2.747-30.714 10.753-49.38 40.5-56z"/><path style="opacity:1" fill="#fe9900" d="M77.5 19.5c24.646-.49 40.813 10.843 48.5 34 3.15 32.392-11.35 50.725-43.5 55-22.668-1.577-37.168-13.243-43.5-35-2.788-29.35 10.045-47.35 38.5-54z"/><path style="opacity:1" d="M78.5 25.5c25.129.465 39.129 13.132 42 38-1.796 23.464-14.463 36.464-38 39-27.268-3.864-39.768-19.53-37.5-47 5.144-16.989 16.31-26.989 33.5-30z"/><path style="opacity:1" fill="#fefffe" d="M50.5 78.5h11c1.416 9.791 6.916 13.458 16.5 11a76.609 76.609 0 0 0 4 9 109.197 109.197 0 0 0 6.5-7.5c6.181-.67 11.014-3.502 14.5-8.5.494-1.634.66-3.3.5-5a40.939 40.939 0 0 0 9-.5 107.892 107.892 0 0 0-5-8.5 10.756 10.756 0 0 1 2.5-3c2.928-9.154.095-15.487-8.5-19a101.29 101.29 0 0 1 3-7.5c-3.225.347-6.392 1.18-9.5 2.5-2.286-6.273-6.786-8.94-13.5-8-5.876-.432-10.71 1.568-14.5 6a78.896 78.896 0 0 1-6.5-3c.437-1.574 1.437-2.741 3-3.5 18.568-8.654 34.735-5.487 48.5 9.5 11.548 20.647 8.048 38.147-10.5 52.5-17.957 8.375-33.79 5.542-47.5-8.5a40.961 40.961 0 0 1-3.5-8z"/><path style="opacity:1" d="M50.5 78.5c1.656-2.639 3.322-5.305 5-8-2.108-1.882-3.441-4.215-4-7a30.857 30.857 0 0 1 3.5-11 34.534 34.534 0 0 0 6.5-7.5 31.902 31.902 0 0 1-1-8.5 78.896 78.896 0 0 0 6.5 3c3.79-4.432 8.624-6.432 14.5-6 6.714-.94 11.214 1.727 13.5 8 3.108-1.32 6.275-2.153 9.5-2.5a101.29 101.29 0 0 0-3 7.5c8.595 3.513 11.428 9.846 8.5 19a10.756 10.756 0 0 0-2.5 3 107.892 107.892 0 0 1 5 8.5 40.939 40.939 0 0 1-9 .5 12.93 12.93 0 0 1-.5 5c-3.486 4.998-8.319 7.83-14.5 8.5a109.197 109.197 0 0 1-6.5 7.5 76.609 76.609 0 0 1-4-9c-9.584 2.458-15.084-1.209-16.5-11h-11z"/><path style="opacity:1" fill="#c60300" d="M76.5 35.5c3.35-.165 6.683.002 10 .5 5.44 2.047 7.273 5.88 5.5 11.5l-3 5c-2.081.833-4.248.833-6.5 0-.516-7.974-1.349-7.974-2.5 0a11.292 11.292 0 0 1-4 2c-3.605-3.024-6.105-6.857-7.5-11.5 1.267-4.104 3.934-6.604 8-7.5z"/><path style="opacity:1" fill="#fefffe" d="M60.5 36.5a31.902 31.902 0 0 0 1 8.5 34.534 34.534 0 0 1-6.5 7.5 30.857 30.857 0 0 0-3.5 11c.559 2.785 1.892 5.118 4 7a2637.783 2637.783 0 0 1-5 8c-.617-.11-1.117-.444-1.5-1-4.559-13.424-2.559-25.758 6-37 1.451-1.964 3.284-3.297 5.5-4z"/><path style="opacity:1" fill="#fe9900" d="M62.5 39.5c3.222 1.103 4.889 3.436 5 7-1.189.929-2.522 1.262-4 1l-1-8z"/><path style="opacity:1" d="M72.5 39.5c2.475.247 2.475.913 0 2-.963-.47-.963-1.136 0-2zM79.5 40.5c.06-.543.393-.876 1-1a28.04 28.04 0 0 0 5 1.5c-2.098.678-4.098.51-6-.5z"/><path style="opacity:1" fill="#fe9900" d="M97.5 42.5c3.184-.168 3.684 1.166 1.5 4-3.957 3.319-5.457 2.319-4.5-3 1.291.237 2.291-.096 3-1z"/><path style="opacity:1" fill="#ca0100" d="M60.5 49.5c5.949-.528 10.282 1.806 13 7l-1 2c-3.217.158-6.55.325-10 .5l9 1.5c.775 3.682-.559 6.182-4 7.5-13.931 1.993-17.264-3.173-10-15.5 1.27-.788 2.27-1.788 3-3z"/><path style="opacity:1" fill="#cb0000" d="M95.5 49.5a40.937 40.937 0 0 1 9 .5c3.805 4.091 4.972 8.925 3.5 14.5-3.452 3.546-7.618 4.713-12.5 3.5-1.75-1.754-2.417-3.92-2-6.5 1.808.009 3.475-.491 5-1.5-4.242.096-7.242-1.737-9-5.5 2.07-1.685 4.07-3.352 6-5z"/><path style="opacity:1" d="M103.5 56.5c-.16-1.7.006-3.366.5-5 1.77 1.815 1.603 3.482-.5 5zM59.5 52.5c.02 1.534.354 3.2 1 5l-3.5 7a238.27 238.27 0 0 1 2.5-12z"/><path style="opacity:1" fill="#fe9900" d="M80.5 54.5c9.937.763 13.104 5.763 9.5 15-5 5.333-10 5.333-15 0-3.184-6.95-1.35-11.95 5.5-15z"/><path style="opacity:1" d="M103.5 56.5c.981 1.99 1.981 3.99 3 6 .047 1.5-.619 2.5-2 3 .414-2.503-.252-5.003-2-7.5.07-.765.403-1.265 1-1.5z"/><path style="opacity:1" fill="#cb0000" d="M70.5 68.5c4.799 2.15 5.132 4.983 1 8.5l1.5 1.5c1.614-4.715 4.28-5.715 8-3 .872 11.476-3.961 14.976-14.5 10.5-5.093-7.554-3.76-13.387 4-17.5zM92.5 69.5c7.51 1.334 10.344 5.668 8.5 13-3.087 3.044-6.753 5.044-11 6-6.342-2.155-8.175-6.489-5.5-13l2-1a12.38 12.38 0 0 1 4.5 5c.048-2.044-.452-4.044-1.5-6a493.061 493.061 0 0 0 3-4z"/><path style="opacity:1" fill="#fe9900" d="M103.5 69.5c2.309.888 3.976 2.554 5 5-1.667 1.333-3.333 1.333-5 0a14.984 14.984 0 0 0-3-3.5c1.237-.232 2.237-.732 3-1.5zM57.5 71.5c4.951-.899 5.951.435 3 4-6.543 2.123-7.543.79-3-4z"/><path style="opacity:1" d="M69.5 82.5c-4.028-.187-5.528-2.187-4.5-6 .763 2.693 2.263 4.693 4.5 6zM93.5 82.5a79.612 79.612 0 0 0 6.5-5c-.456 3.602-2.623 5.269-6.5 5zM69.5 82.5c1.613 1.77 3.613 2.936 6 3.5-3.372 1.121-5.372-.045-6-3.5zM93.5 82.5c-.619 3.643-2.619 4.643-6 3 2.204-.706 4.204-1.706 6-3z"/><path style="opacity:1" fill="#fe9900" d="M81.5 85.5c4.542 2.745 5.042 6.078 1.5 10-2.13-3.18-2.63-6.513-1.5-10z"/><path style="opacity:1" fill="#003266" d="M3.5 124.5c18.67-.167 37.336 0 56 .5-5.106 20.067 2.56 31.901 23 35.5 20.644-3.46 28.311-15.293 23-35.5 18.664-.5 37.33-.667 56-.5-1.901 37.076-20.234 62.243-55 75.5-43.355 9.789-75.522-4.711-96.5-43.5-4.156-10.281-6.323-20.948-6.5-32z"/><path style="opacity:1" fill="#fefffe" d="M-.5 131.5c6.76 40.428 30.093 65.428 70 75h-70v-75zM165.5 133.5v73h-70a157.946 157.946 0 0 0 25-8.5c25.157-14.619 40.157-36.119 45-64.5z"/></svg>
